logo/disqus.svg

<?xml version="1.0" encoding="UTF-8" standalone="no"?>
<svg width="256px" height="249px" viewBox="0 0 256 249" version="1.1" xmlns="http://www.w3.org/2000/svg" xmlns:xlink="http://www.w3.org/1999/xlink" preserveAspectRatio="xMidYMid">
    <g>
        <path d="M132.668777,248.633094 C102.247137,248.633094 74.4315396,237.516432 52.9256978,219.126791 L0,226.35741 L20.4468489,175.892259 C13.3230504,160.173122 9.3265036,142.722763 9.3265036,124.316547 C9.3265036,55.6625036 64.5488345,0 132.668777,0 C200.783194,0 256,55.6625036 256,124.316547 C256,192.983482 200.785036,248.633094 132.668777,248.633094 L132.668777,248.633094 Z M200.015194,123.961094 L200.015194,123.614849 C200.015194,87.7416978 174.717237,62.1619568 131.097784,62.1619568 L83.9864173,62.1619568 L83.9864173,186.478504 L130.39977,186.478504 C174.358101,186.480345 200.015194,159.832403 200.015194,123.961094 L200.015194,123.961094 L200.015194,123.961094 Z M131.617151,155.935309 L117.837353,155.935309 L117.837353,92.7143597 L131.617151,92.7143597 C151.855885,92.7143597 165.289439,104.252777 165.289439,124.152633 L165.289439,124.498878 C165.289439,144.566331 151.855885,155.935309 131.617151,155.935309 L131.617151,155.935309 Z" fill="#2E9FFF"></path>
    </g>
</svg>

<svg viewBox="0 0 256 249" xmlns="http://www.w3.org/2000/svg"><path fill="#2E9FFF" d="M132.66 248.63c-30.43 0-58.24-11.12-79.75-29.51l-52.93 7.23 20.44-50.47c-7.13-15.72-11.13-33.17-11.13-51.58C9.29 55.64 64.51-.02 132.63-.02c68.11 0 123.33 55.66 123.33 124.31 0 68.66-55.22 124.31-123.34 124.31v0ZM200 123.95v-.35c0-35.88-25.3-61.46-68.92-61.46H83.96v124.31h46.41c43.95 0 69.61-26.65 69.61-62.52v0 0Zm-68.4 31.97h-13.78V92.69h13.77c20.23 0 33.67 11.53 33.67 31.43v.34c0 20.06-13.44 31.43-33.68 31.43v0Z"/></svg>
